;FLAVOR:UltiGCode
;TIME:11301
;MATERIAL:11597
;MATERIAL2:0
;NOZZLE_DIAMETER:0.4
;Generated with Cura_SteamEngine 4.0.0
M82 ;absolute extrusion mode

G92 E0
G10
;LAYER_COUNT:25
;LAYER:0
M107
G0 F3600 X45.313 Y40.905 Z0.3
;TYPE:SKIRT
G11
G1 F1200 X45.43 Y40.788 E0.01986
G1 X45.847 Y40.428 E0.08596
G1 X46.311 Y40.131 E0.15207
G1 X46.814 Y39.905 E0.21825
G1 X47.344 Y39.754 E0.28438
G1 X48.117 Y39.675 E0.37762
G1 X55.183 Y39.675 E1.22554
G1 X55.733 Y39.715 E1.29171
G1 X56.271 Y39.834 E1.35783
G1 X56.786 Y40.03 E1.42396
G1 X57.267 Y40.298 E1.49003
G1 X57.87 Y40.788 E1.58327
G1 X57.987 Y40.905 E1.60313
G1 X58.347 Y41.322 E1.66924
G1 X58.644 Y41.786 E1.73534
G1 X58.87 Y42.289 E1.80152
G1 X59.021 Y42.819 E1.86765
G1 X59.1 Y43.592 E1.96089
G1 X59.1 Y45.925 E2.24085
G1 X66.4 Y45.925 E3.11685
G1 X66.4 Y43.592 E3.39681
G1 X66.44 Y43.042 E3.46299
G1 X66.559 Y42.504 E3.52911
G1 X66.755 Y41.989 E3.59523
G1 X67.023 Y41.508 E3.66131
G1 X67.513 Y40.905 E3.75454
G1 X67.63 Y40.788 E3.7744
G1 X68.047 Y40.428 E3.84051
G1 X68.511 Y40.131 E3.90662
G1 X69.014 Y39.905 E3.97279
G1 X69.544 Y39.754 E4.03892
G1 X70.317 Y39.675 E4.13216
G1 X72.683 Y39.675 E4.41608
G1 X73.233 Y39.715 E4.48226
G1 X73.771 Y39.834 E4.54838
G1 X74.286 Y40.03 E4.6145
G1 X74.767 Y40.298 E4.68058
G1 X75.37 Y40.788 E4.77382
G1 X75.487 Y40.905 E4.79367
G1 X75.847 Y41.322 E4.85978
G1 X76.144 Y41.786 E4.92589
G1 X76.37 Y42.289 E4.99206
G1 X76.521 Y42.819 E5.05819
G1 X76.6 Y43.592 E5.15144
G1 X76.6 Y45.925 E5.4314
G1 X83.9 Y45.925 E6.3074
G1 X83.9 Y43.592 E6.58736
G1 X83.94 Y43.042 E6.65353
G1 X84.059 Y42.504 E6.71965
G1 X84.255 Y41.989 E6.78577
G1 X84.523 Y41.508 E6.85185
G1 X85.013 Y40.905 E6.94509
G1 X85.13 Y40.788 E6.96494
G1 X85.547 Y40.428 E7.03105
G1 X86.011 Y40.131 E7.09716
G1 X86.514 Y39.905 E7.16333
G1 X87.044 Y39.754 E7.22946
G1 X87.817 Y39.675 E7.32271
G1 X90.183 Y39.675 E7.60663
G1 X90.733 Y39.715 E7.6728
G1 X91.271 Y39.834 E7.73892
G1 X91.786 Y40.03 E7.80505
G1 X92.267 Y40.298 E7.87112
G1 X92.87 Y40.788 E7.96436
G1 X92.987 Y40.905 E7.98422
G1 X93.347 Y41.322 E8.05032
G1 X93.644 Y41.786 E8.11643
G1 X93.87 Y42.289 E8.18261
G1 X94.021 Y42.819 E8.24874
G1 X94.1 Y43.592 E8.34198
G1 X94.1 Y45.925 E8.62194
G1 X101.4 Y45.925 E9.49794
G1 X101.4 Y43.592 E9.7779
G1 X101.44 Y43.042 E9.84407
G1 X101.559 Y42.504 E9.91019
G1 X101.755 Y41.989 E9.97632
G1 X102.023 Y41.508 E10.04239
G1 X102.513 Y40.905 E10.13563
G1 X102.63 Y40.788 E10.15549
G1 X103.047 Y40.428 E10.22159
G1 X103.511 Y40.131 E10.2877
G1 X104.014 Y39.905 E10.35388
G1 X104.544 Y39.754 E10.42001
G1 X105.317 Y39.675 E10.51325
G1 X107.683 Y39.675 E10.79717
G1 X108.233 Y39.715 E10.86335
G1 X108.771 Y39.834 E10.92947
G1 X109.286 Y40.03 E10.99559
G1 X109.767 Y40.298 E11.06166
G1 X110.37 Y40.788 E11.1549
G1 X110.487 Y40.905 E11.17476
G1 X110.847 Y41.322 E11.24087
G1 X111.144 Y41.786 E11.30698
G1 X111.37 Y42.289 E11.37315
G1 X111.521 Y42.819 E11.43928
G1 X111.6 Y43.592 E11.53252
G1 X111.6 Y45.925 E11.81248
G1 X118.9 Y45.925 E12.68848
G1 X118.9 Y43.592 E12.96844
G1 X118.94 Y43.042 E13.03462
G1 X119.059 Y42.504 E13.10074
G1 X119.255 Y41.989 E13.16686
G1 X119.523 Y41.508 E13.23294
G1 X120.013 Y40.905 E13.32618
G1 X120.13 Y40.788 E13.34603
G1 X120.547 Y40.428 E13.41214
G1 X121.011 Y40.131 E13.47825
G1 X121.514 Y39.905 E13.54442
G1 X122.044 Y39.754 E13.61055
G1 X122.817 Y39.675 E13.70379
G1 X125.183 Y39.675 E13.98771
G1 X125.733 Y39.715 E14.05389
G1 X126.271 Y39.834 E14.12001
G1 X126.786 Y40.03 E14.18613
G1 X127.267 Y40.298 E14.25221
G1 X127.87 Y40.788 E14.34545
G1 X127.987 Y40.905 E14.3653
G1 X128.347 Y41.322 E14.43141
G1 X128.644 Y41.786 E14.49752
G1 X128.87 Y42.289 E14.56369
G1 X129.021 Y42.819 E14.62982
G1 X129.1 Y43.592 E14.72307
G1 X129.1 Y45.925 E15.00303
G1 X136.4 Y45.925 E15.87903
G1 X136.4 Y43.592 E16.15899
G1 X136.44 Y43.042 E16.22516
G1 X136.559 Y42.504 E16.29128
G1 X136.755 Y41.989 E16.35741
G1 X137.023 Y41.508 E16.42348
G1 X137.513 Y40.905 E16.51672
G1 X137.63 Y40.788 E16.53657
G1 X138.047 Y40.428 E16.60268
G1 X138.511 Y40.131 E16.66879
G1 X139.014 Y39.905 E16.73496
G1 X139.544 Y39.754 E16.8011
G1 X140.317 Y39.675 E16.89434
G1 X142.683 Y39.675 E17.17826
G1 X143.233 Y39.715 E17.24443
G1 X143.771 Y39.834 E17.31055
G1 X144.286 Y40.03 E17.37668
G1 X144.767 Y40.298 E17.44275
G1 X145.37 Y40.788 E17.53599
G1 X145.487 Y40.905 E17.55585
G1 X145.847 Y41.322 E17.62195
G1 X146.144 Y41.786 E17.68806
G1 X146.37 Y42.289 E17.75424
G1 X146.521 Y42.819 E17.82037
G1 X146.6 Y43.592 E17.91361
G1 X146.6 Y45.925 E18.19357
G1 X153.9 Y45.925 E19.06957
G1 X153.9 Y43.592 E19.34953
G1 X153.94 Y43.042 E19.4157
G1 X154.059 Y42.504 E19.48183
G1 X154.255 Y41.989 E19.54795
G1 X154.523 Y41.508 E19.61402
G1 X155.013 Y40.905 E19.70726
G1 X155.13 Y40.788 E19.72712
G1 X155.547 Y40.428 E19.79323
G1 X156.011 Y40.131 E19.85934
G1 X156.514 Y39.905 E19.92551
G1 X157.044 Y39.754 E19.99164
G1 X157.817 Y39.675 E20.08488
G1 X160.183 Y39.675 E20.3688
G1 X160.733 Y39.715 E20.43498
G1 X161.271 Y39.834 E20.5011
G1 X161.786 Y40.03 E20.56722
G1 X162.267 Y40.298 E20.6333
G1 X162.87 Y40.788 E20.72653
G1 X162.987 Y40.905 E20.74639
G1 X163.347 Y41.322 E20.8125
G1 X163.644 Y41.786 E20.87861
G1 X163.87 Y42.289 E20.94478
G1 X164.021 Y42.819 E21.01091
G1 X164.1 Y43.592 E21.10415
G1 X164.1 Y45.925 E21.38411
G1 X174.883 Y45.925 E22.67807
G1 X175.433 Y45.965 E22.74425
G1 X175.971 Y46.084 E22.81037
G1 X176.486 Y46.28 E22.87649
G1 X176.967 Y46.548 E22.94257
G1 X177.57 Y47.038 E23.03581
G1 X177.687 Y47.155 E23.05566
G1 X178.047 Y47.572 E23.12177
G1 X178.344 Y48.036 E23.18788
G1 X178.57 Y48.539 E23.25405
G1 X178.721 Y49.069 E23.32018
G1 X178.8 Y49.842 E23.41343
G1 X178.8 Y53.608 E23.86535
G1 X178.76 Y54.158 E23.93152
G1 X178.641 Y54.696 E23.99764
G1 X178.445 Y55.211 E24.06377
G1 X178.177 Y55.692 E24.12984
G1 X177.687 Y56.295 E24.22308
G1 X177.57 Y56.412 E24.24293
G1 X177.153 Y56.772 E24.30904
G1 X176.689 Y57.069 E24.37515
G1 X176.186 Y57.295 E24.44132
G1 X175.656 Y57.446 E24.50745
G1 X175.372 Y57.475 E24.54171
G1 X176.058 Y57.475 E24.62403
G1 X176.608 Y57.515 E24.69021
G1 X177.146 Y57.634 E24.75633
G1 X177.661 Y57.83 E24.82245
G1 X178.142 Y58.098 E24.88853
G1 X178.745 Y58.588 E24.98176
G1 X178.862 Y58.705 E25.00162
G1 X179.222 Y59.122 E25.06773
G1 X179.519 Y59.586 E25.13384
G1 X179.745 Y60.089 E25.20001
G1 X179.896 Y60.619 E25.26614
G1 X179.975 Y61.392 E25.35938
G1 X179.975 Y71.408 E26.5613
G1 X179.935 Y71.958 E26.62748
G1 X179.816 Y72.496 E26.6936
G1 X179.62 Y73.011 E26.75972
G1 X179.352 Y73.492 E26.8258
G1 X178.862 Y74.095 E26.91904
G1 X178.745 Y74.212 E26.93889
G1 X178.328 Y74.572 E27.005
G1 X177.864 Y74.869 E27.07111
G1 X177.361 Y75.095 E27.13728
G1 X176.831 Y75.246 E27.20341
G1 X176.058 Y75.325 E27.29666
G1 X158.542 Y75.325 E29.39858
G1 X157.992 Y75.285 E29.46475
G1 X157.454 Y75.166 E29.53087
G1 X156.939 Y74.97 E29.59699
G1 X156.458 Y74.702 E29.66307
G1 X155.855 Y74.212 E29.75631
G1 X155.738 Y74.095 E29.77616
G1 X155.378 Y73.678 E29.84227
G1 X155.081 Y73.214 E29.90838
G1 X154.855 Y72.711 E29.97455
G1 X154.704 Y72.181 E30.04068
G1 X154.625 Y71.408 E30.13393
G1 X154.625 Y69.075 E30.41389
G1 X147.325 Y69.075 E31.28989
G1 X147.325 Y71.408 E31.56985
G1 X147.285 Y71.958 E31.63602
G1 X147.166 Y72.496 E31.70214
G1 X146.97 Y73.011 E31.76827
G1 X146.702 Y73.492 E31.83434
G1 X146.212 Y74.095 E31.92758
G1 X146.095 Y74.212 E31.94744
G1 X145.678 Y74.572 E32.01354
G1 X145.214 Y74.869 E32.07965
G1 X144.711 Y75.095 E32.14583
G1 X144.181 Y75.246 E32.21196
G1 X143.408 Y75.325 E32.3052
G1 X141.042 Y75.325 E32.58912
G1 X140.492 Y75.285 E32.65529
G1 X139.954 Y75.166 E32.72141
G1 X139.439 Y74.97 E32.78754
G1 X138.958 Y74.702 E32.85361
G1 X138.355 Y74.212 E32.94685
G1 X138.238 Y74.095 E32.96671
G1 X137.878 Y73.678 E33.03282
G1 X137.581 Y73.214 E33.09892
G1 X137.355 Y72.711 E33.1651
G1 X137.204 Y72.181 E33.23123
G1 X137.125 Y71.408 E33.32447
G1 X137.125 Y69.075 E33.60443
G1 X129.825 Y69.075 E34.48043
G1 X129.825 Y71.408 E34.76039
G1 X129.785 Y71.958 E34.82657
G1 X129.666 Y72.496 E34.89269
G1 X129.47 Y73.011 E34.95881
G1 X129.202 Y73.492 E35.02489
G1 X128.712 Y74.095 E35.11812
G1 X128.595 Y74.212 E35.13798
G1 X128.178 Y74.572 E35.20409
G1 X127.714 Y74.869 E35.2702
G1 X127.211 Y75.095 E35.33637
G1 X126.681 Y75.246 E35.4025
G1 X125.908 Y75.325 E35.49574
G1 X123.542 Y75.325 E35.77966
G1 X122.992 Y75.285 E35.84584
G1 X122.454 Y75.166 E35.91196
G1 X121.939 Y74.97 E35.97808
G1 X121.458 Y74.702 E36.04416
G1 X120.855 Y74.212 E36.1374
G1 X120.738 Y74.095 E36.15725
G1 X120.378 Y73.678 E36.22336
G1 X120.081 Y73.214 E36.28947
G1 X119.855 Y72.711 E36.35564
G1 X119.704 Y72.181 E36.42177
G1 X119.625 Y71.408 E36.51502
G1 X119.625 Y69.075 E36.79498
G1 X112.325 Y69.075 E37.67098
G1 X112.325 Y71.408 E37.95094
G1 X112.285 Y71.958 E38.01711
G1 X112.166 Y72.496 E38.08323
G1 X111.97 Y73.011 E38.14935
G1 X111.702 Y73.492 E38.21543
G1 X111.212 Y74.095 E38.30867
G1 X111.095 Y74.212 E38.32852
G1 X110.678 Y74.572 E38.39463
G1 X110.214 Y74.869 E38.46074
G1 X109.711 Y75.095 E38.52691
G1 X109.181 Y75.246 E38.59304
G1 X108.408 Y75.325 E38.68629
G1 X88.542 Y75.325 E41.07021
G1 X87.992 Y75.285 E41.13638
G1 X87.454 Y75.166 E41.2025
G1 X86.939 Y74.97 E41.26863
G1 X86.458 Y74.702 E41.3347
G1 X85.855 Y74.212 E41.42794
G1 X85.738 Y74.095 E41.44779
G1 X85.378 Y73.678 E41.5139
G1 X85.081 Y73.214 E41.58001
G1 X84.855 Y72.711 E41.64619
G1 X84.704 Y72.181 E41.71232
G1 X84.625 Y71.408 E41.80556
G1 X84.625 Y69.075 E42.08552
G1 X77.325 Y69.075 E42.96152
G1 X77.325 Y71.408 E43.24148
G1 X77.285 Y71.958 E43.30765
G1 X77.166 Y72.496 E43.37377
G1 X76.97 Y73.011 E43.4399
G1 X76.702 Y73.492 E43.50597
G1 X76.212 Y74.095 E43.59921
G1 X76.095 Y74.212 E43.61907
G1 X75.678 Y74.572 E43.68517
G1 X75.214 Y74.869 E43.75128
G1 X74.711 Y75.095 E43.81746
G1 X74.181 Y75.246 E43.88359
G1 X73.408 Y75.325 E43.97683
G1 X71.042 Y75.325 E44.26075
G1 X70.492 Y75.285 E44.32693
G1 X69.954 Y75.166 E44.39305
G1 X69.439 Y74.97 E44.45917
G1 X68.958 Y74.702 E44.52524
G1 X68.355 Y74.212 E44.61848
G1 X68.238 Y74.095 E44.63834
G1 X67.878 Y73.678 E44.70445
G1 X67.581 Y73.214 E44.77056
G1 X67.355 Y72.711 E44.83673
G1 X67.204 Y72.181 E44.90286
G1 X67.125 Y71.408 E44.9961
G1 X67.125 Y69.075 E45.27606
G1 X59.825 Y69.075 E46.15206
G1 X59.825 Y71.408 E46.43202
G1 X59.785 Y71.958 E46.4982
G1 X59.666 Y72.496 E46.56432
G1 X59.47 Y73.011 E46.63044
G1 X59.202 Y73.492 E46.69652
G1 X58.712 Y74.095 E46.78976
G1 X58.595 Y74.212 E46.80961
G1 X58.178 Y74.572 E46.87572
G1 X57.714 Y74.869 E46.94183
G1 X57.211 Y75.095 E47.008
G1 X56.681 Y75.246 E47.07413
G1 X55.908 Y75.325 E47.16737
G1 X46.942 Y75.325 E48.24329
G1 X46.392 Y75.285 E48.30947
G1 X45.854 Y75.166 E48.37559
G1 X45.339 Y74.97 E48.44171
G1 X44.858 Y74.702 E48.50779
G1 X44.255 Y74.212 E48.60103
G1 X44.138 Y74.095 E48.62088
G1 X43.778 Y73.678 E48.68699
G1 X43.481 Y73.214 E48.7531
G1 X43.255 Y72.711 E48.81927
G1 X43.104 Y72.181 E48.8854
G1 X43.025 Y71.408 E48.97865
G1 X43.025 Y61.392 E50.18057
G1 X43.065 Y60.842 E50.24674
G1 X43.184 Y60.304 E50.31286
G1 X43.38 Y59.789 E50.37899
G1 X43.648 Y59.308 E50.44506
G1 X44.138 Y58.705 E50.5383
G1 X44.255 Y58.588 E50.55815
G1 X44.672 Y58.228 E50.62426
G1 X45.136 Y57.931 E50.69037
G1 X45.639 Y57.705 E50.75654
G1 X46.169 Y57.554 E50.82268
G1 X46.942 Y57.475 E50.91592
G1 X47.522 Y57.475 E50.98552
G1 X47.029 Y57.366 E51.04611
G1 X46.514 Y57.17 E51.11223
G1 X46.033 Y56.902 E51.17831
G1 X45.43 Y56.412 E51.27154
G1 X45.313 Y56.295 E51.2914
G1 X44.953 Y55.878 E51.35751
G1 X44.656 Y55.414 E51.42362
G1 X44.43 Y54.911 E51.48979
G1 X44.279 Y54.381 E51.55592
G1 X44.2 Y53.608 E51.64916
G1 X44.2 Y43.592 E52.85108
G1 X44.24 Y43.042 E52.91726
G1 X44.359 Y42.504 E52.98338
G1 X44.555 Y41.989 E53.0495
G1 X44.823 Y41.508 E53.11558
G1 X45.313 Y40.905 E53.20882
G0 F3600 X45.596 Y41.188
G1 F1200 X45.713 Y41.071 E53.22867
G1 X46.109 Y40.732 E53.29123
G1 X46.551 Y40.457 E53.35369
G1 X47.031 Y40.253 E53.41628
G1 X47.536 Y40.125 E53.4788
G1 X48.117 Y40.075 E53.54877
G1 X55.183 Y40.075 E54.39669
G1 X55.703 Y40.115 E54.45928
G1 X56.21 Y40.234 E54.52177
G1 X56.693 Y40.429 E54.58428
G1 X57.141 Y40.695 E54.6468
G1 X57.587 Y41.071 E54.7168
G1 X57.704 Y41.188 E54.73666
G1 X58.043 Y41.584 E54.79921
G1 X58.318 Y42.026 E54.86168
G1 X58.522 Y42.506 E54.92426
G1 X58.65 Y43.011 E54.98678
G1 X58.7 Y43.592 E55.05676
G1 X58.7 Y46.325 E55.38472
G1 X66.8 Y46.325 E56.35672
G1 X66.8 Y43.592 E56.68468
G1 X66.84 Y43.072 E56.74726
G1 X66.959 Y42.565 E56.80976
G1 X67.154 Y42.082 E56.87226
G1 X67.42 Y41.634 E56.93478
G1 X67.796 Y41.188 E57.00479
G1 X67.913 Y41.071 E57.02464
G1 X68.309 Y40.732 E57.0872
G1 X68.751 Y40.457 E57.14966
G1 X69.231 Y40.253 E57.21225
G1 X69.736 Y40.125 E57.27477
G1 X70.317 Y40.075 E57.34474
G1 X72.683 Y40.075 E57.62866
G1 X73.203 Y40.115 E57.69125
G1 X73.71 Y40.234 E57.75374
G1 X74.193 Y40.429 E57.81625
G1 X74.641 Y40.695 E57.87877
G1 X75.087 Y41.071 E57.94877
G1 X75.204 Y41.188 E57.96863
G1 X75.543 Y41.584 E58.03118
G1 X75.818 Y42.026 E58.09365
G1 X76.022 Y42.506 E58.15623
G1 X76.15 Y43.011 E58.21875
G1 X76.2 Y43.592 E58.28873
G1 X76.2 Y46.325 E58.61669
G1 X84.3 Y46.325 E59.58869
G1 X84.3 Y43.592 E59.91665
G1 X84.34 Y43.072 E59.97923
G1 X84.459 Y42.565 E60.04173
G1 X84.654 Y42.082 E60.10423
G1 X84.92 Y41.634 E60.16675
G1 X85.296 Y41.188 E60.23675
G1 X85.413 Y41.071 E60.25661
G1 X85.809 Y40.732 E60.31916
G1 X86.251 Y40.457 E60.38163
G1 X86.731 Y40.253 E60.44422
G1 X87.236 Y40.125 E60.50673
G1 X87.817 Y40.075 E60.57671
G1 X90.183 Y40.075 E60.86063
G1 X90.703 Y40.115 E60.92322
G1 X91.21 Y40.234 E60.98571
G1 X91.693 Y40.429 E61.04822
G1 X92.141 Y40.695 E61.11074
G1 X92.587 Y41.071 E61.18074
G1 X92.704 Y41.188 E61.20059
G1 X93.043 Y41.584 E61.26315
G1 X93.318 Y42.026 E61.32562
G1 X93.522 Y42.506 E61.3882
G1 X93.65 Y43.011 E61.45072
G1 X93.7 Y43.592 E61.5207
G1 X93.7 Y46.325 E61.84866
G1 X101.8 Y46.325 E62.82066
G1 X101.8 Y43.592 E63.14862
G1 X101.84 Y43.072 E63.2112
G1 X101.959 Y42.565 E63.27369
G1 X102.154 Y42.082 E63.3362
G1 X102.42 Y41.634 E63.39872
G1 X102.796 Y41.188 E63.46872
G1 X102.913 Y41.071 E63.48858
G1 X103.309 Y40.732 E63.55113
G1 X103.751 Y40.457 E63.6136
G1 X104.231 Y40.253 E63.67619
G1 X104.736 Y40.125 E63.7387
G1 X105.317 Y40.075 E63.80868
G1 X107.683 Y40.075 E64.0926
G1 X108.203 Y40.115 E64.15519
G1 X108.71 Y40.234 E64.21768
G1 X109.193 Y40.429 E64.28018
G1 X109.641 Y40.695 E64.34271
G1 X110.087 Y41.071 E64.41271
G1 X110.204 Y41.188 E64.43256
G1 X110.543 Y41.584 E64.49512
G1 X110.818 Y42.026 E64.55759
G1 X111.022 Y42.506 E64.62017
G1 X111.15 Y43.011 E64.68269
G1 X111.2 Y43.592 E64.75267
G1 X111.2 Y46.325 E65.08063
G1 X119.3 Y46.325 E66.05263
G1 X119.3 Y43.592 E66.38059
G1 X119.34 Y43.072 E66.44317
G1 X119.459 Y42.565 E66.50566
G1 X119.654 Y42.082 E66.56817
G1 X119.92 Y41.634 E66.63069
G1 X120.296 Y41.188 E66.70069
G1 X120.413 Y41.071 E66.72055
G1 X120.809 Y40.732 E66.7831
G1 X121.251 Y40.457 E66.84557
G1 X121.731 Y40.253 E66.90816
G1 X122.236 Y40.125 E66.97067
G1 X122.817 Y40.075 E67.04065
G1 X125.183 Y40.075 E67.32457
G1 X125.703 Y40.115 E67.38715
G1 X126.21 Y40.234 E67.44965
G1 X126.693 Y40.429 E67.51215
G1 X127.141 Y40.695 E67.57468
G1 X127.587 Y41.071 E67.64468
G1 X127.704 Y41.188 E67.66453
G1 X128.043 Y41.584 E67.72709
G1 X128.318 Y42.026 E67.78955
G1 X128.522 Y42.506 E67.85214
G1 X128.65 Y43.011 E67.91466
G1 X128.7 Y43.592 E67.98464
G1 X128.7 Y46.325 E68.3126
G1 X136.8 Y46.325 E69.2846
G1 X136.8 Y43.592 E69.61256
G1 X136.84 Y43.072 E69.67514
G1 X136.959 Y42.565 E69.73763
G1 X137.154 Y42.082 E69.80014
G1 X137.42 Y41.634 E69.86266
G1 X137.796 Y41.188 E69.93266
G1 X137.913 Y41.071 E69.95252
G1 X138.309 Y40.732 E70.01507
G1 X138.751 Y40.457 E70.07754
G1 X139.231 Y40.253 E70.14013
G1 X139.736 Y40.125 E70.20264
G1 X140.317 Y40.075 E70.27262
G1 X142.683 Y40.075 E70.55654
G1 X143.203 Y40.115 E70.61912
G1 X143.71 Y40.234 E70.68162
G1 X144.193 Y40.429 E70.74412
G1 X144.641 Y40.695 E70.80664
G1 X145.087 Y41.071 E70.87665
G1 X145.204 Y41.188 E70.8965
G1 X145.543 Y41.584 E70.95906
G1 X145.818 Y42.026 E71.02152
G1 X146.022 Y42.506 E71.08411
G1 X146.15 Y43.011 E71.14663
G1 X146.2 Y43.592 E71.2166
