;FLAVOR:Marlin
;TIME:2565
;Filament used: 2.06108m
;Layer height: 0.15
;Generated with Cura_SteamEngine 4.0.0
M140 S60
M105
M190 S60
M104 S200
M105
M109 S200
M82 ;absolute extrusion mode
G21 ;metric values
G90 ;absolute positioning
M82 ;set extruder to absolute mode
M107 ;start with the fan off
G28 X0 Y0 ;move X/Y to min endstops
G28 Z0 ;move Z to min endstops
G1 Z15.0 F9000 ;move the platform down 15mm
G92 E0 ;zero the extruded length
G1 F200 E3 ;extrude 3mm of feed stock
G92 E0 ;zero the extruded length again
G1 F9000
;Put printing message on LCD screen
M117 Printing...
G92 E0
G1 F1500 E-6.5
;LAYER_COUNT:160
;LAYER:0
M107
G0 F3600 X92.112 Y74.871 Z0.3
;TYPE:SKIRT
G1 F1500 E0
G1 F1800 X92.461 Y74.465 E0.02671
G1 X92.868 Y74.114 E0.05352
G1 X93.321 Y73.829 E0.08022
G1 X93.812 Y73.613 E0.10699
G1 X94.33 Y73.473 E0.13376
G1 X95.008 Y73.409 E0.16773
G1 X104.995 Y73.41 E0.66599
G1 X105.53 Y73.45 E0.69275
G1 X106.053 Y73.569 E0.71951
G1 X106.552 Y73.764 E0.74624
G1 X107.017 Y74.032 E0.77302
G1 X107.437 Y74.365 E0.79976
G1 X107.875 Y74.849 E0.83232
G1 X112.274 Y80.712 E1.19801
G1 X115.804 Y84.831 E1.46865
G1 X119.573 Y88.759 E1.74024
G1 X123.446 Y92.373 E2.00452
G1 X123.81 Y92.767 E2.03128
G1 X124.111 Y93.211 E2.05804
G1 X124.343 Y93.694 E2.08477
G1 X124.5 Y94.207 E2.11154
G1 X124.59 Y95.005 E2.15161
G1 X124.59 Y104.995 E2.65001
G1 X124.55 Y105.53 E2.67677
G1 X124.431 Y106.053 E2.70353
G1 X124.236 Y106.552 E2.73026
G1 X123.968 Y107.017 E2.75704
G1 X123.635 Y107.437 E2.78378
G1 X123.434 Y107.639 E2.798
G1 X120.45 Y110.397 E3.00072
G1 X116.621 Y114.283 E3.27289
G1 X113.013 Y118.384 E3.5454
G1 X109.646 Y122.678 E3.81764
G1 X107.918 Y125.089 E3.96563
G1 X107.574 Y125.5 E3.99237
G1 X107.172 Y125.856 E4.01916
G1 X106.723 Y126.148 E4.04588
G1 X106.235 Y126.37 E4.07262
G1 X105.719 Y126.517 E4.09939
G1 X104.991 Y126.591 E4.1359
G1 X95.003 Y126.588 E4.6342
G1 X94.468 Y126.548 E4.66097
G1 X93.945 Y126.429 E4.68773
G1 X93.446 Y126.233 E4.71447
G1 X92.981 Y125.966 E4.74123
G1 X92.561 Y125.632 E4.768
G1 X92.125 Y125.149 E4.80046
G1 X87.74 Y119.306 E5.16493
G1 X84.186 Y115.159 E5.43741
G1 X80.427 Y111.241 E5.70829
G1 X76.553 Y107.626 E5.97264
G1 X76.189 Y107.232 E5.9994
G1 X75.888 Y106.788 E6.02617
G1 X75.656 Y106.305 E6.0529
G1 X75.499 Y105.792 E6.07966
G1 X75.419 Y105.262 E6.10641
G1 X75.409 Y104.994 E6.11979
G1 X75.41 Y95.009 E6.61794
G1 X75.45 Y94.474 E6.64471
G1 X75.569 Y93.951 E6.67146
G1 X75.764 Y93.452 E6.69819
G1 X76.032 Y92.987 E6.72497
G1 X76.531 Y92.399 E6.76344
G1 X81.498 Y87.682 E7.10519
G1 X85.209 Y83.695 E7.37693
G1 X88.701 Y79.492 E7.64955
G1 X92.112 Y74.871 E7.9361
G0 F3600 X92.433 Y75.109
G1 F1800 X92.765 Y74.727 E7.96135
G1 X93.152 Y74.402 E7.98656
G1 X93.586 Y74.142 E8.0118
G1 X94.055 Y73.954 E8.03701
G1 X94.548 Y73.842 E8.06223
G1 X95.008 Y73.809 E8.08524
G1 X104.995 Y73.81 E8.58349
G1 X105.499 Y73.85 E8.60872
G1 X105.991 Y73.969 E8.63397
G1 X106.457 Y74.164 E8.65917
G1 X106.887 Y74.429 E8.68437
G1 X107.27 Y74.76 E8.70963
G1 X107.555 Y75.09 E8.73138
G1 X111.955 Y80.954 E9.09713
G1 X115.513 Y85.105 E9.36989
G1 X119.285 Y89.037 E9.64173
G1 X123.173 Y92.665 E9.90704
G1 X123.514 Y93.038 E9.93225
G1 X123.793 Y93.461 E9.95753
G1 X124.001 Y93.921 E9.98272
G1 X124.134 Y94.409 E10.00795
G1 X124.19 Y95.005 E10.03782
G1 X124.19 Y104.995 E10.53622
G1 X124.15 Y105.499 E10.56145
G1 X124.031 Y105.99 E10.58665
G1 X123.837 Y106.457 E10.61188
G1 X123.571 Y106.887 E10.63711
G1 X123.162 Y107.345 E10.66774
G1 X120.176 Y110.105 E10.8706
G1 X116.335 Y114.002 E11.14359
G1 X112.705 Y118.129 E11.4178
G1 X109.315 Y122.453 E11.69192
G1 X107.593 Y124.855 E11.83937
G1 X107.267 Y125.242 E11.86461
G1 X106.884 Y125.572 E11.88984
G1 X106.454 Y125.838 E11.91506
G1 X105.987 Y126.032 E11.94029
G1 X105.496 Y126.151 E11.9655
G1 X104.991 Y126.191 E11.99077
G1 X95.003 Y126.188 E12.48907
G1 X94.499 Y126.148 E12.5143
G1 X94.008 Y126.029 E12.5395
G1 X93.541 Y125.834 E12.56475
G1 X93.111 Y125.568 E12.58998
G1 X92.728 Y125.238 E12.6152
G1 X92.445 Y124.909 E12.63685
G1 X88.046 Y119.047 E13.00249
G1 X84.487 Y114.895 E13.27532
G1 X80.715 Y110.963 E13.54716
G1 X76.826 Y107.334 E13.81254
G1 X76.485 Y106.961 E13.83775
G1 X76.206 Y106.538 E13.86303
G1 X75.998 Y106.078 E13.88822
G1 X75.865 Y105.59 E13.91345
G1 X75.809 Y104.994 E13.94332
G1 X75.81 Y95.009 E14.44147
G1 X75.85 Y94.505 E14.4667
G1 X75.969 Y94.013 E14.49195
G1 X76.164 Y93.547 E14.51715
G1 X76.429 Y93.117 E14.54235
G1 X76.806 Y92.689 E14.57081
G1 X81.792 Y87.954 E14.91386
G1 X85.51 Y83.959 E15.18613
G1 X89.006 Y79.751 E15.45907
G1 X92.433 Y75.109 E15.74693
G1 F1500 E9.24693
G0 F3600 X94.403 Y76.824
G0 X94.436 Y76.852
G0 X97.343 Y79.382
G0 X97.376 Y79.411
G0 X97.65 Y79.65
;TYPE:SUPPORT
G1 F1500 E15.74693
G1 F1800 X102.35 Y79.65 E15.98141
G1 X102.35 Y84.35 E16.2159
G1 X97.65 Y84.35 E16.45038
G1 X97.65 Y79.65 E16.68487
G0 F3600 X97.81 Y80.01
G1 F1800 X102.19 Y80.01 E16.90339
G0 F3600 X101.346 Y79.81
G1 F1800 X101.346 Y84.19 E17.1219
G0 F3600 X102.19 Y82.677
G1 F1800 X97.81 Y82.677 E17.34042
G0 F3600 X98.679 Y84.19
G1 F1800 X98.679 Y79.81 E17.55894
G1 F1500 E11.05894
G0 F3600 X98.4 Y84.62
G0 X98.398 Y84.664
G0 X98.23 Y87.583
G0 X98.225 Y87.663
G0 X97.841 Y94.335
G0 X97.836 Y94.415
G0 X97.668 Y97.334
G0 X97.666 Y97.378
G0 X97.65 Y97.65
G1 F1500 E17.55894
G1 F1800 X102.35 Y97.65 E17.79343
G1 X102.35 Y102.35 E18.02791
G1 X97.65 Y102.35 E18.26239
G1 X97.65 Y97.65 E18.49688
G0 F3600 X98.679 Y97.81
G1 F1800 X98.679 Y102.19 E18.7154
G0 F3600 X97.81 Y101.346
G1 F1800 X102.19 Y101.346 E18.93392
G0 F3600 X101.346 Y102.19
G1 F1800 X101.346 Y97.81 E19.15244
G0 F3600 X102.19 Y98.679
G1 F1800 X97.81 Y98.679 E19.37095
G1 F1500 E12.87095
G0 F3600 X97.378 Y98.639
G0 X97.334 Y98.635
G0 X94.414 Y98.373
G0 X94.334 Y98.366
G0 X89.663 Y97.947
G0 X89.584 Y97.94
G0 X86.664 Y97.677
G0 X86.62 Y97.674
G0 X86.35 Y97.65
G1 F1500 E19.37095
G1 F1800 X86.35 Y102.35 E19.60544
G1 X81.65 Y102.35 E19.83992
G1 X81.65 Y97.65 E20.07441
G1 X86.35 Y97.65 E20.30889
G0 F3600 X85.344 Y97.81
G1 F1800 X85.344 Y102.19 E20.52741
G0 F3600 X86.19 Y101.346
G1 F1800 X81.81 Y101.346 E20.74593
G0 F3600 X82.677 Y102.19
G1 F1800 X82.677 Y97.81 E20.96445
G0 F3600 X81.81 Y98.679
G1 F1800 X86.19 Y98.679 E21.18297
G1 F1500 E14.68297
G0 F3600 X86.622 Y99.319
G0 X86.647 Y99.356
G0 X89.601 Y103.732
G0 X89.646 Y103.798
G0 X95.415 Y112.341
G0 X95.46 Y112.407
G0 X97.441 Y115.341
G0 X97.466 Y115.378
G0 X97.65 Y115.65
G1 F1500 E21.18297
G1 F1800 X102.35 Y115.65 E21.41745
G1 X102.35 Y120.35 E21.65193
G1 X97.65 Y120.35 E21.88642
G1 X97.65 Y115.65 E22.1209
G0 F3600 X98.679 Y115.81
G1 F1800 X98.679 Y120.19 E22.33942
G0 F3600 X97.809 Y120.015
G1 F1800 X102.189 Y120.015 E22.55794
G0 F3600 X101.346 Y120.19
G1 F1800 X101.346 Y115.81 E22.77646
G0 F3600 X102.19 Y117.348
G1 F1800 X97.81 Y117.348 E22.99498
G1 F1500 E16.49498
G0 F3600 X99.891 Y115.376
G0 X99.923 Y115.346
G0 X103.032 Y112.402
G0 X103.091 Y112.347
G0 X110.504 Y105.328
G0 X110.562 Y105.273
G0 X113.345 Y102.638
G0 X113.377 Y102.608
G0 X113.65 Y102.35
G1 F1500 E22.99498
G1 F1800 X113.65 Y97.65 E23.22946
G1 X118.35 Y97.65 E23.46395
G1 X118.35 Y102.35 E23.69843
G1 X113.65 Y102.35 E23.93291
G0 F3600 X113.81 Y101.346
G1 F1800 X118.19 Y101.346 E24.15143
G0 F3600 X117.348 Y102.19
G1 F1800 X117.348 Y97.81 E24.36995
G0 F3600 X118.19 Y98.679
G1 F1800 X113.81 Y98.679 E24.58847
G0 F3600 X114.681 Y97.81
G1 F1800 X114.681 Y102.19 E24.80699
G1 F1500 E18.30699
;MESH:Button_extender.stl(4)
G0 F3600 X113.387 Y100.366
G0 X113.35 Y100.314
G0 X110.397 Y96.147
G0 X110.372 Y96.111
G0 X104.386 Y87.665
G0 X104.386 Y86.386
G0 X104.33 Y86.33
G0 X104.4 Y86.4
;TYPE:WALL-INNER
G1 F1500 E24.80699
G1 F1800 X95.6 Y86.4 E25.24602
G1 X95.6 Y77.6 E25.68506
G1 X104.4 Y77.6 E26.12409
G1 X104.4 Y86.4 E26.56313
G0 F3600 X104.33 Y86.33
G0 X96.122 Y85.878
G0 X96.08 Y78.08
G0 X96.15 Y78.15
G1 F1800 X96.15 Y85.85 E26.94728
G1 X103.85 Y85.85 E27.33144
G1 X103.85 Y78.15 E27.71559
G1 X96.15 Y78.15 E28.09974
G0 F3600 X96.55 Y78.55
;TYPE:WALL-OUTER
G1 F1800 X96.55 Y85.45 E28.44399
G1 X103.45 Y85.45 E28.78823
G1 X103.45 Y78.55 E29.13247
G1 X96.55 Y78.55 E29.47671
G0 F3600 X96.55 Y78.75
G0 X96.05 Y78.75
G0 X96.122 Y85.878
G0 X104.33 Y86.33
G0 X104.8 Y86.8
G1 F1800 X95.2 Y86.8 E29.95566
G1 X95.2 Y77.2 E30.43461
G1 X104.8 Y77.2 E30.91355
G1 X104.8 Y86.8 E31.3925
G0 F3600 X104.6 Y86.8
G0 X104.33 Y86.33
G0 X95.837 Y86.22
;TYPE:SKIN
G1 F1800 X95.779 Y86.162 E31.39659
G0 F3600 X95.969 Y85.786
G1 F1800 X95.779 Y85.596 E31.41
G0 F3600 X95.969 Y85.221
G1 F1800 X95.779 Y85.031 E31.4234
G0 F3600 X95.969 Y84.655
G1 F1800 X95.779 Y84.465 E31.43681
G0 F3600 X95.969 Y84.089
G1 F1800 X95.779 Y83.899 E31.45021
G0 F3600 X95.969 Y83.524
G1 F1800 X95.779 Y83.333 E31.46365
G0 F3600 X95.969 Y82.958
G1 F1800 X95.779 Y82.768 E31.47706
G0 F3600 X95.969 Y82.392
G1 F1800 X95.779 Y82.202 E31.49046
G0 F3600 X95.969 Y81.827
G1 F1800 X95.779 Y81.636 E31.5039
G0 F3600 X95.969 Y81.261
G1 F1800 X95.779 Y81.071 E31.51731
G0 F3600 X95.969 Y80.695
G1 F1800 X95.779 Y80.505 E31.53072
G0 F3600 X95.969 Y80.13
G1 F1800 X95.779 Y79.939 E31.54416
G0 F3600 X95.969 Y79.564
G1 F1800 X95.779 Y79.374 E31.55756
G0 F3600 X95.969 Y78.998
G1 F1800 X95.779 Y78.808 E31.57097
G0 F3600 X95.969 Y78.432
G1 F1800 X95.779 Y78.242 E31.58437
G0 F3600 X96.071 Y77.969
G1 F1800 X95.882 Y77.78 E31.59771
G0 F3600 X96.447 Y77.78
G1 F1800 X96.637 Y77.969 E31.61108
G0 F3600 X97.013 Y77.78
G1 F1800 X97.203 Y77.969 E31.62445
G0 F3600 X97.579 Y77.78
G1 F1800 X97.768 Y77.969 E31.63778
G0 F3600 X98.145 Y77.78
G1 F1800 X98.334 Y77.969 E31.65112
G0 F3600 X98.71 Y77.78
G1 F1800 X98.9 Y77.969 E31.66449
G0 F3600 X99.276 Y77.78
G1 F1800 X99.465 Y77.969 E31.67782
G0 F3600 X99.842 Y77.78
G1 F1800 X100.031 Y77.969 E31.69116
G0 F3600 X100.407 Y77.78
G1 F1800 X100.597 Y77.969 E31.70453
G0 F3600 X100.973 Y77.78
G1 F1800 X101.162 Y77.969 E31.71786
G0 F3600 X101.539 Y77.78
G1 F1800 X101.728 Y77.969 E31.7312
G0 F3600 X102.104 Y77.78
G1 F1800 X102.294 Y77.969 E31.74457
G0 F3600 X102.67 Y77.78
G1 F1800 X102.859 Y77.969 E31.7579
G0 F3600 X103.236 Y77.78
G1 F1800 X103.425 Y77.969 E31.77124
G0 F3600 X103.801 Y77.78
G1 F1800 X103.991 Y77.969 E31.78461
G0 F3600 X104.028 Y78.007
G1 F1800 X104.219 Y78.197 E31.79805
G0 F3600 X104.028 Y78.572
G1 F1800 X104.219 Y78.763 E31.81153
G0 F3600 X104.028 Y79.138
G1 F1800 X104.219 Y79.328 E31.82497
G0 F3600 X104.028 Y79.704
G1 F1800 X104.219 Y79.894 E31.83841
G0 F3600 X104.028 Y80.27
G1 F1800 X104.219 Y80.46 E31.85185
G0 F3600 X104.028 Y80.835
G1 F1800 X104.219 Y81.025 E31.86529
G0 F3600 X104.028 Y81.401
G1 F1800 X104.219 Y81.591 E31.87873
G0 F3600 X104.028 Y81.967
G1 F1800 X104.219 Y82.157 E31.89217
G0 F3600 X104.028 Y82.532
G1 F1800 X104.219 Y82.723 E31.90565
G0 F3600 X104.028 Y83.098
G1 F1800 X104.219 Y83.288 E31.91909
G0 F3600 X104.028 Y83.664
G1 F1800 X104.219 Y83.854 E31.93253
G0 F3600 X104.028 Y84.229
G1 F1800 X104.219 Y84.42 E31.94601
G0 F3600 X104.028 Y84.795
G1 F1800 X104.219 Y84.985 E31.95945
G0 F3600 X104.028 Y85.361
G1 F1800 X104.219 Y85.551 E31.97289
G0 F3600 X104.028 Y85.926
G1 F1800 X104.219 Y86.117 E31.98636
G0 F3600 X103.756 Y86.22
G1 F1800 X103.566 Y86.03 E31.99977
G0 F3600 X103.19 Y86.22
G1 F1800 X103 Y86.03 E32.01317
G0 F3600 X102.625 Y86.22
G1 F1800 X102.435 Y86.03 E32.02658
G0 F3600 X102.059 Y86.22
G1 F1800 X101.869 Y86.03 E32.03999
G0 F3600 X101.493 Y86.22
G1 F1800 X101.303 Y86.03 E32.05339
G0 F3600 X100.928 Y86.22
G1 F1800 X100.737 Y86.03 E32.06683
G0 F3600 X100.362 Y86.22
G1 F1800 X100.172 Y86.03 E32.08024
G0 F3600 X99.796 Y86.22
G1 F1800 X99.606 Y86.03 E32.09364
G0 F3600 X99.231 Y86.22
G1 F1800 X99.04 Y86.03 E32.10708
G0 F3600 X98.665 Y86.22
G1 F1800 X98.475 Y86.03 E32.12049
G0 F3600 X98.099 Y86.22
G1 F1800 X97.909 Y86.03 E32.1339
G0 F3600 X97.534 Y86.22
G1 F1800 X97.343 Y86.03 E32.14734
G0 F3600 X96.968 Y86.22
G1 F1800 X96.778 Y86.03 E32.16074
G0 F3600 X96.402 Y86.22
G1 F1800 X96.212 Y86.03 E32.17415
G0 F3600 X96.212 Y86
G1 F1500 E25.67415
;MESH:Button_extender.stl
G0 F3600 X96.08 Y86.38
G0 X96.08 Y87.665
G0 X96.08 Y94.335
G0 X96.08 Y95.62
G0 X96.08 Y96.08
G0 X96.15 Y96.15
;TYPE:WALL-INNER
G1 F1500 E32.17415
G1 F1800 X96.15 Y103.85 E32.5583
G1 X103.85 Y103.85 E32.94246
G1 X103.85 Y96.15 E33.32661
G1 X96.15 Y96.15 E33.71077
G0 F3600 X96.08 Y96.08
G0 X103.878 Y96.122
G0 X104.33 Y104.33
G0 X104.4 Y104.4
G1 F1800 X95.6 Y104.4 E34.1498
G1 X95.6 Y95.6 E34.58883
G1 X104.4 Y95.6 E35.02787
G1 X104.4 Y104.4 E35.4669
G0 F3600 X104.8 Y104.8
;TYPE:WALL-OUTER
G1 F1800 X95.2 Y104.8 E35.94585
G1 X95.2 Y95.2 E36.42479
G1 X104.8 Y95.2 E36.90374
G1 X104.8 Y104.8 E37.38268
G0 F3600 X104.6 Y104.8
G0 X104.33 Y104.33
G0 X103.878 Y96.122
G0 X96.55 Y96.05
G0 X96.55 Y96.55
G1 F1800 X96.55 Y103.45 E37.72693
G1 X103.45 Y103.45 E38.07117
G1 X103.45 Y96.55 E38.41541
G1 X96.55 Y96.55 E38.75965
G0 F3600 X96.55 Y96.75
G0 X96.05 Y96.75
G0 X96.109 Y104.029
;TYPE:SKIN
G1 F1800 X96.299 Y104.219 E38.77306
G0 F3600 X96.675 Y104.029
G1 F1800 X96.865 Y104.219 E38.78646
G0 F3600 X97.241 Y104.029
G1 F1800 X97.43 Y104.219 E38.79984
G0 F3600 X97.807 Y104.029
G1 F1800 X97.996 Y104.219 E38.81321
G0 F3600 X98.372 Y104.029
G1 F1800 X98.562 Y104.219 E38.82661
G0 F3600 X98.938 Y104.029
G1 F1800 X99.127 Y104.219 E38.83998
G0 F3600 X99.504 Y104.029
G1 F1800 X99.693 Y104.219 E38.85335
G0 F3600 X100.069 Y104.029
G1 F1800 X100.259 Y104.219 E38.86676
G0 F3600 X100.635 Y104.029
G1 F1800 X100.824 Y104.219 E38.88013
G0 F3600 X101.201 Y104.029
G1 F1800 X101.39 Y104.219 E38.8935
G0 F3600 X101.766 Y104.029
G1 F1800 X101.956 Y104.219 E38.9069
G0 F3600 X102.332 Y104.029
G1 F1800 X102.521 Y104.219 E38.92027
G0 F3600 X102.898 Y104.029
G1 F1800 X103.087 Y104.219 E38.93364
G0 F3600 X103.463 Y104.029
G1 F1800 X103.653 Y104.219 E38.94705
G0 F3600 X104.029 Y104.029
G1 F1800 X104.219 Y104.219 E38.96045
G0 F3600 X104.219 Y103.654
G1 F1800 X104.029 Y103.463 E38.9739
G0 F3600 X104.219 Y103.088
G1 F1800 X104.029 Y102.898 E38.9873
G0 F3600 X104.219 Y102.522
G1 F1800 X104.029 Y102.332 E39.00071
G0 F3600 X104.219 Y101.957
G1 F1800 X104.029 Y101.766 E39.01415
G0 F3600 X104.219 Y101.391
G1 F1800 X104.029 Y101.201 E39.02755
G0 F3600 X104.219 Y100.825
G1 F1800 X104.029 Y100.635 E39.04096
G0 F3600 X104.219 Y100.259
G1 F1800 X104.029 Y100.069 E39.05436
G0 F3600 X104.219 Y99.694
G1 F1800 X104.029 Y99.504 E39.06777
G0 F3600 X104.219 Y99.128
G1 F1800 X104.029 Y98.938 E39.08118
G0 F3600 X104.219 Y98.562
G1 F1800 X104.029 Y98.372 E39.09458
G0 F3600 X104.219 Y97.997
G1 F1800 X104.029 Y97.807 E39.10799
G0 F3600 X104.219 Y97.431
G1 F1800 X104.029 Y97.241 E39.12139
G0 F3600 X104.219 Y96.865
G1 F1800 X104.029 Y96.675 E39.1348
G0 F3600 X104.219 Y96.3
G1 F1800 X104.029 Y96.109 E39.14824
G0 F3600 X103.889 Y95.969
G1 F1800 X103.7 Y95.78 E39.16157
G0 F3600 X103.323 Y95.969
G1 F1800 X103.134 Y95.78 E39.17491
G0 F3600 X102.758 Y95.969
G1 F1800 X102.568 Y95.78 E39.18828
G0 F3600 X102.192 Y95.969
G1 F1800 X102.002 Y95.78 E39.20165
G0 F3600 X101.626 Y95.969
G1 F1800 X101.437 Y95.78 E39.21498
G0 F3600 X101.061 Y95.969
G1 F1800 X100.871 Y95.78 E39.22835
G0 F3600 X100.495 Y95.969
G1 F1800 X100.305 Y95.78 E39.24172
G0 F3600 X99.929 Y95.969
G1 F1800 X99.74 Y95.78 E39.25506
G0 F3600 X99.364 Y95.969
G1 F1800 X99.174 Y95.78 E39.26843
G0 F3600 X98.798 Y95.969
G1 F1800 X98.608 Y95.78 E39.2818
G0 F3600 X98.232 Y95.969
G1 F1800 X98.043 Y95.78 E39.29513
G0 F3600 X97.667 Y95.969
G1 F1800 X97.477 Y95.78 E39.30851
G0 F3600 X97.101 Y95.969
G1 F1800 X96.911 Y95.78 E39.32188
G0 F3600 X96.535 Y95.969
G1 F1800 X96.346 Y95.78 E39.33521
G0 F3600 X95.969 Y95.969
G1 F1800 X95.779 Y95.779 E39.34862
G0 F3600 X95.779 Y96.345
G1 F1800 X95.969 Y96.535 E39.36202
G0 F3600 X95.779 Y96.911
G1 F1800 X95.969 Y97.101 E39.37543
G0 F3600 X95.779 Y97.476
G1 F1800 X95.969 Y97.667 E39.38887
G0 F3600 X95.779 Y98.042
G1 F1800 X95.969 Y98.232 E39.40227
G0 F3600 X95.779 Y98.608
G1 F1800 X95.969 Y98.798 E39.41568
G0 F3600 X95.779 Y99.173
G1 F1800 X95.969 Y99.364 E39.42912
G0 F3600 X95.779 Y99.739
G1 F1800 X95.969 Y99.929 E39.44253
G0 F3600 X95.779 Y100.305
G1 F1800 X95.969 Y100.495 E39.45593
G0 F3600 X95.779 Y100.87
