;FLAVOR:Marlin
;TIME:2802
;Filament used: 1.71779m
;Layer height: 0.1
;Generated with Cura_SteamEngine 4.0.0
M140 S60
M105
M190 S60
M104 S200
M105
M109 S200
M82 ;absolute extrusion mode
G21 ;metric values
G90 ;absolute positioning
M82 ;set extruder to absolute mode
M107 ;start with the fan off
G28 X0 Y0 ;move X/Y to min endstops
G28 Z0 ;move Z to min endstops
G1 Z15.0 F9000 ;move the platform down 15mm
G92 E0 ;zero the extruded length
G1 F200 E3 ;extrude 3mm of feed stock
G92 E0 ;zero the extruded length again
G1 F9000
;Put printing message on LCD screen
M117 Printing...
G92 E0
G1 F1500 E-6.5
;LAYER_COUNT:24
;LAYER:0
M107
G0 F3600 X84.867 Y32.954 Z0.3
;TYPE:SKIRT
G1 F1500 E0
G1 F1800 X85.217 Y32.246 E0.0394
G1 X85.638 Y31.577 E0.07884
G1 X86.02 Y31.076 E0.11027
G1 X91.047 Y25.018 E0.50301
G1 X91.582 Y24.437 E0.54241
G1 X92.172 Y23.912 E0.58182
G1 X92.813 Y23.45 E0.62124
G1 X93.497 Y23.055 E0.66064
G1 X94.217 Y22.732 E0.70001
G1 X94.966 Y22.482 E0.73941
G1 X95.737 Y22.31 E0.77882
G1 X96.521 Y22.217 E0.81821
G1 X97.1 Y22.199 E0.84711
G1 X103.081 Y22.237 E1.14551
G1 X103.869 Y22.282 E1.18488
G1 X104.649 Y22.407 E1.22429
G1 X105.412 Y22.609 E1.26367
G1 X106.151 Y22.888 E1.30308
G1 X106.858 Y23.24 E1.34248
G1 X107.525 Y23.662 E1.38186
G1 X108.147 Y24.149 E1.42127
G1 X108.716 Y24.696 E1.46065
G1 X109.073 Y25.104 E1.4877
G1 X114.042 Y31.191 E1.87972
G1 X114.51 Y31.828 E1.91915
G1 X114.911 Y32.508 E1.95854
G1 X115.241 Y33.225 E1.99791
G1 X115.497 Y33.972 E2.03731
G1 X115.676 Y34.741 E2.0767
G1 X115.777 Y35.525 E2.11614
G1 X115.8 Y36.124 E2.14604
G1 X115.8 Y41.755 E2.42698
G1 X115.76 Y42.544 E2.46639
G1 X115.641 Y43.324 E2.50576
G1 X115.443 Y44.089 E2.54518
G1 X115.169 Y44.829 E2.58455
G1 X114.821 Y45.538 E2.62395
G1 X114.403 Y46.209 E2.66339
G1 X113.92 Y46.833 E2.70276
G1 X113.377 Y47.406 E2.74214
G1 X112.786 Y47.914 E2.78102
G1 X114.042 Y49.452 E2.88009
G1 X114.51 Y50.089 E2.91953
G1 X114.911 Y50.769 E2.95891
G1 X115.241 Y51.486 E2.99829
G1 X115.497 Y52.233 E3.03768
G1 X115.676 Y53.002 E3.07708
G1 X115.777 Y53.786 E3.11651
G1 X115.8 Y54.385 E3.14642
G1 X115.8 Y60.016 E3.42735
G1 X115.76 Y60.805 E3.46676
G1 X115.641 Y61.585 E3.50613
G1 X115.443 Y62.35 E3.54555
G1 X115.169 Y63.09 E3.58492
G1 X114.821 Y63.799 E3.62432
G1 X114.403 Y64.47 E3.66376
G1 X113.92 Y65.094 E3.70313
G1 X113.377 Y65.667 E3.74252
G1 X112.786 Y66.175 E3.7814
G1 X114.042 Y67.713 E3.88046
G1 X114.51 Y68.35 E3.9199
G1 X114.911 Y69.03 E3.95928
G1 X115.241 Y69.747 E3.99866
G1 X115.497 Y70.494 E4.03806
G1 X115.676 Y71.263 E4.07745
G1 X115.777 Y72.047 E4.11689
G1 X115.8 Y72.646 E4.14679
G1 X115.8 Y78.277 E4.42772
G1 X115.76 Y79.066 E4.46714
G1 X115.641 Y79.846 E4.5065
G1 X115.443 Y80.611 E4.54593
G1 X115.169 Y81.351 E4.5853
G1 X114.821 Y82.06 E4.6247
G1 X114.403 Y82.731 E4.66414
G1 X113.92 Y83.355 E4.70351
G1 X113.377 Y83.928 E4.74289
G1 X112.786 Y84.436 E4.78177
G1 X114.042 Y85.975 E4.88088
G1 X114.51 Y86.612 E4.92031
G1 X114.911 Y87.292 E4.9597
G1 X115.241 Y88.009 E4.99908
G1 X115.497 Y88.756 E5.03847
G1 X115.676 Y89.525 E5.07786
G1 X115.777 Y90.309 E5.1173
G1 X115.8 Y90.908 E5.14721
G1 X115.8 Y96.538 E5.42809
G1 X115.76 Y97.327 E5.4675
G1 X115.641 Y98.107 E5.50687
G1 X115.443 Y98.872 E5.54629
G1 X115.169 Y99.612 E5.58566
G1 X114.821 Y100.321 E5.62506
G1 X114.403 Y100.992 E5.6645
G1 X113.92 Y101.616 E5.70387
G1 X113.377 Y102.189 E5.74325
G1 X112.786 Y102.697 E5.78213
G1 X114.042 Y104.235 E5.8812
G1 X114.51 Y104.872 E5.92064
G1 X114.911 Y105.552 E5.96002
G1 X115.241 Y106.269 E5.9994
G1 X115.497 Y107.016 E6.03879
G1 X115.676 Y107.785 E6.07819
G1 X115.777 Y108.569 E6.11762
G1 X115.8 Y109.168 E6.14753
G1 X115.8 Y114.799 E6.42846
G1 X115.76 Y115.588 E6.46788
G1 X115.641 Y116.368 E6.50724
G1 X115.443 Y117.133 E6.54666
G1 X115.169 Y117.873 E6.58603
G1 X114.821 Y118.582 E6.62543
G1 X114.403 Y119.253 E6.66488
G1 X113.92 Y119.877 E6.70424
G1 X113.377 Y120.45 E6.74363
G1 X112.786 Y120.958 E6.78251
G1 X114.042 Y122.496 E6.88157
G1 X114.51 Y123.132 E6.92097
G1 X114.911 Y123.812 E6.96035
G1 X115.241 Y124.53 E6.99978
G1 X115.497 Y125.277 E7.03917
G1 X115.676 Y126.046 E7.07857
G1 X115.777 Y126.829 E7.11795
G1 X115.8 Y127.429 E7.14791
G1 X115.8 Y133.06 E7.42884
G1 X115.76 Y133.849 E7.46825
G1 X115.641 Y134.629 E7.50762
G1 X115.443 Y135.394 E7.54704
G1 X115.169 Y136.134 E7.58641
G1 X114.821 Y136.843 E7.62581
G1 X114.403 Y137.514 E7.66525
G1 X113.92 Y138.138 E7.70462
G1 X113.377 Y138.711 E7.74401
G1 X112.786 Y139.219 E7.78289
G1 X114.042 Y140.757 E7.88195
G1 X114.51 Y141.394 E7.92139
G1 X114.911 Y142.074 E7.96077
G1 X115.241 Y142.791 E8.00015
G1 X115.497 Y143.538 E8.03955
G1 X115.676 Y144.307 E8.07894
G1 X115.777 Y145.091 E8.11838
G1 X115.8 Y145.69 E8.14828
G1 X115.8 Y151.322 E8.42926
G1 X115.76 Y152.111 E8.46868
G1 X115.641 Y152.891 E8.50804
G1 X115.443 Y153.656 E8.54747
G1 X115.169 Y154.396 E8.58683
G1 X114.821 Y155.105 E8.62624
G1 X114.403 Y155.776 E8.66568
G1 X113.92 Y156.4 E8.70505
G1 X113.377 Y156.973 E8.74443
G1 X112.787 Y157.481 E8.78327
G1 X114.042 Y159.018 E8.88227
G1 X114.51 Y159.654 E8.92167
G1 X114.911 Y160.334 E8.96105
G1 X115.241 Y161.052 E9.00047
G1 X115.497 Y161.799 E9.03987
G1 X115.676 Y162.568 E9.07926
G1 X115.777 Y163.351 E9.11865
G1 X115.8 Y163.951 E9.1486
G1 X115.8 Y169.582 E9.42954
G1 X115.76 Y170.371 E9.46895
G1 X115.641 Y171.151 E9.50831
G1 X115.443 Y171.916 E9.54774
G1 X115.169 Y172.656 E9.58711
G1 X114.821 Y173.365 E9.62651
G1 X114.403 Y174.036 E9.66595
G1 X113.92 Y174.66 E9.70532
G1 X113.377 Y175.233 E9.7447
G1 X112.778 Y175.748 E9.78411
G1 X112.13 Y176.199 E9.8235
G1 X111.439 Y176.583 E9.86294
G1 X110.623 Y176.928 E9.90714
G1 X110.357 Y177.023 E9.92123
G1 X109.601 Y177.25 E9.96061
G1 X108.826 Y177.4 E10
G1 X108.039 Y177.471 E10.03942
G1 X107.25 Y177.462 E10.07878
G1 X106.465 Y177.373 E10.1182
G1 X105.693 Y177.205 E10.15762
G1 X104.943 Y176.96 E10.19698
G1 X104.221 Y176.641 E10.23636
G1 X103.534 Y176.25 E10.2758
G1 X102.891 Y175.792 E10.31518
G1 X102.298 Y175.271 E10.35456
G1 X101.706 Y174.628 E10.39817
G1 X100 Y172.551 E10.53226
G1 X98.294 Y174.628 E10.66636
G1 X97.762 Y175.212 E10.70577
G1 X97.174 Y175.739 E10.74517
G1 X96.536 Y176.204 E10.78455
G1 X95.854 Y176.603 E10.82397
G1 X95.136 Y176.93 E10.86333
G1 X94.388 Y177.183 E10.90273
G1 X93.618 Y177.359 E10.94213
G1 X92.834 Y177.456 E10.98155
G1 X92.045 Y177.474 E11.02092
G1 X91.258 Y177.412 E11.06031
G1 X90.481 Y177.27 E11.09971
G1 X89.643 Y177.023 E11.1433
G1 X89.377 Y176.928 E11.15739
G1 X88.647 Y176.625 E11.19682
G1 X87.952 Y176.25 E11.23622
G1 X87.299 Y175.806 E11.27562
G1 X86.694 Y175.299 E11.315
G1 X86.143 Y174.733 E11.35441
G1 X85.652 Y174.114 E11.39383
G1 X85.226 Y173.449 E11.43323
G1 X84.87 Y172.745 E11.47258
G1 X84.587 Y172.008 E11.51197
G1 X84.379 Y171.246 E11.55138
G1 X84.25 Y170.466 E11.59082
G1 X84.2 Y169.551 E11.63654
G1 X84.223 Y163.853 E11.92081
G1 X84.266 Y163.064 E11.96024
G1 X84.389 Y162.284 E11.99963
G1 X84.59 Y161.52 E12.03905
G1 X84.867 Y160.781 E12.07842
G1 X85.217 Y160.073 E12.11782
G1 X85.638 Y159.404 E12.15726
G1 X85.997 Y158.932 E12.18684
G1 X87.202 Y157.465 E12.28156
G1 X86.694 Y157.039 E12.31463
G1 X86.143 Y156.473 E12.35404
G1 X85.652 Y155.854 E12.39346
G1 X85.226 Y155.189 E12.43286
G1 X84.87 Y154.485 E12.47222
G1 X84.587 Y153.748 E12.5116
G1 X84.379 Y152.986 E12.55101
G1 X84.25 Y152.206 E12.59045
G1 X84.2 Y151.291 E12.63617
G1 X84.223 Y145.592 E12.9205
G1 X84.266 Y144.803 E12.95992
G1 X84.389 Y144.023 E12.99932
G1 X84.59 Y143.259 E13.03873
G1 X84.867 Y142.52 E13.0781
G1 X85.217 Y141.812 E13.11751
G1 X85.638 Y141.143 E13.15694
G1 X85.996 Y140.672 E13.18646
G1 X87.203 Y139.203 E13.28131
G1 X86.694 Y138.777 E13.31443
G1 X86.143 Y138.211 E13.35383
G1 X85.652 Y137.592 E13.39325
G1 X85.226 Y136.927 E13.43265
G1 X84.87 Y136.223 E13.47201
G1 X84.587 Y135.486 E13.5114
G1 X84.379 Y134.724 E13.5508
G1 X84.25 Y133.944 E13.59025
G1 X84.2 Y133.029 E13.63597
G1 X84.223 Y127.331 E13.92024
G1 X84.266 Y126.542 E13.95966
G1 X84.389 Y125.762 E13.99906
G1 X84.59 Y124.998 E14.03847
G1 X84.867 Y124.259 E14.07785
G1 X85.217 Y123.551 E14.11725
G1 X85.638 Y122.882 E14.15668
G1 X85.997 Y122.41 E14.18627
G1 X87.203 Y120.942 E14.28105
G1 X86.694 Y120.516 E14.31417
G1 X86.143 Y119.95 E14.35358
G1 X85.652 Y119.331 E14.39299
G1 X85.226 Y118.666 E14.4324
G1 X84.87 Y117.962 E14.47175
G1 X84.587 Y117.225 E14.51114
G1 X84.379 Y116.463 E14.55055
G1 X84.25 Y115.683 E14.58999
G1 X84.2 Y114.768 E14.63571
G1 X84.223 Y109.07 E14.91998
G1 X84.266 Y108.281 E14.95941
G1 X84.389 Y107.501 E14.9988
G1 X84.59 Y106.737 E15.03821
G1 X84.867 Y105.998 E15.07759
G1 X85.217 Y105.29 E15.11699
G1 X85.638 Y104.621 E15.15643
G1 X85.996 Y104.15 E15.18594
G1 X87.203 Y102.681 E15.2808
G1 X86.694 Y102.255 E15.31391
G1 X86.143 Y101.689 E15.35332
G1 X85.652 Y101.07 E15.39274
G1 X85.226 Y100.405 E15.43214
G1 X84.87 Y99.701 E15.4715
G1 X84.587 Y98.964 E15.51088
G1 X84.379 Y98.202 E15.55029
G1 X84.25 Y97.422 E15.58973
G1 X84.2 Y96.507 E15.63545
G1 X84.223 Y90.81 E15.91968
G1 X84.266 Y90.021 E15.9591
G1 X84.389 Y89.241 E15.99849
G1 X84.59 Y88.477 E16.03791
G1 X84.867 Y87.738 E16.07728
G1 X85.217 Y87.03 E16.11668
G1 X85.638 Y86.361 E16.15612
G1 X85.996 Y85.89 E16.18564
G1 X87.203 Y84.421 E16.28049
G1 X86.694 Y83.994 E16.31364
G1 X86.143 Y83.428 E16.35304
G1 X85.652 Y82.809 E16.39246
G1 X85.226 Y82.144 E16.43186
G1 X84.87 Y81.44 E16.47122
G1 X84.587 Y80.703 E16.51061
G1 X84.379 Y79.941 E16.55001
G1 X84.25 Y79.161 E16.58946
G1 X84.2 Y78.246 E16.63518
G1 X84.223 Y72.548 E16.91945
G1 X84.266 Y71.759 E16.95887
G1 X84.389 Y70.979 E16.99827
G1 X84.59 Y70.215 E17.03768
G1 X84.867 Y69.476 E17.07706
G1 X85.217 Y68.768 E17.11646
G1 X85.638 Y68.099 E17.15589
G1 X85.996 Y67.628 E17.18541
G1 X87.203 Y66.159 E17.28026
G1 X86.694 Y65.733 E17.31338
G1 X86.143 Y65.167 E17.35279
G1 X85.652 Y64.548 E17.39221
G1 X85.226 Y63.883 E17.43161
G1 X84.87 Y63.179 E17.47096
G1 X84.587 Y62.442 E17.51035
G1 X84.379 Y61.68 E17.54976
G1 X84.25 Y60.9 E17.5892
G1 X84.2 Y59.985 E17.63492
G1 X84.223 Y54.287 E17.9192
G1 X84.266 Y53.498 E17.95862
G1 X84.389 Y52.718 E17.99801
G1 X84.59 Y51.954 E18.03743
G1 X84.867 Y51.215 E18.0768
G1 X85.217 Y50.507 E18.1162
G1 X85.638 Y49.838 E18.15564
G1 X85.996 Y49.367 E18.18515
G1 X87.203 Y47.898 E18.28001
G1 X86.694 Y47.472 E18.31312
G1 X86.143 Y46.906 E18.35253
G1 X85.652 Y46.287 E18.39195
G1 X85.226 Y45.622 E18.43135
G1 X84.87 Y44.918 E18.47071
G1 X84.587 Y44.181 E18.51009
G1 X84.379 Y43.419 E18.5495
G1 X84.25 Y42.639 E18.58894
G1 X84.2 Y41.724 E18.63466
G1 X84.223 Y36.026 E18.91894
G1 X84.266 Y35.237 E18.95836
G1 X84.389 Y34.457 E18.99776
G1 X84.59 Y33.693 E19.03717
G1 X84.867 Y32.954 E19.07654
G0 F3600 X85.266 Y33.04
G1 F1800 X85.616 Y32.355 E19.11492
G1 X86.035 Y31.71 E19.15329
G1 X86.328 Y31.331 E19.17719
G1 X91.355 Y25.273 E19.56993
G1 X91.877 Y24.708 E19.60831
G1 X92.454 Y24.199 E19.6467
G1 X93.081 Y23.754 E19.68506
G1 X93.75 Y23.375 E19.72342
G1 X94.456 Y23.069 E19.7618
G1 X95.189 Y22.837 E19.80016
G1 X95.942 Y22.682 E19.83852
G1 X96.708 Y22.607 E19.87692
G1 X97.097 Y22.599 E19.89633
G1 X103.078 Y22.637 E20.19473
G1 X103.846 Y22.682 E20.23311
G1 X104.605 Y22.806 E20.27148
G1 X105.347 Y23.009 E20.30986
G1 X106.064 Y23.287 E20.34822
G1 X106.748 Y23.638 E20.38658
G1 X107.392 Y24.059 E20.42496
G1 X107.989 Y24.544 E20.46334
G1 X108.763 Y25.357 E20.51934
G1 X113.732 Y31.444 E20.91136
G1 X114.187 Y32.065 E20.94977
G1 X114.575 Y32.729 E20.98813
G1 X114.892 Y33.43 E21.02652
G1 X115.135 Y34.16 E21.0649
G1 X115.3 Y34.911 E21.10326
G1 X115.386 Y35.675 E21.14162
G1 X115.4 Y36.124 E21.16403
G1 X115.4 Y41.755 E21.44496
G1 X115.36 Y42.523 E21.48333
G1 X115.241 Y43.283 E21.52171
G1 X115.043 Y44.026 E21.56007
G1 X114.769 Y44.745 E21.59846
G1 X114.422 Y45.431 E21.63681
G1 X114.006 Y46.078 E21.67519
G1 X113.525 Y46.678 E21.71355
G1 X112.984 Y47.225 E21.75194
G1 X112.389 Y47.713 E21.79033
G1 X112.205 Y47.834 E21.80132
G1 X113.732 Y49.705 E21.9218
G1 X114.187 Y50.326 E21.96021
G1 X114.575 Y50.99 E21.99858
G1 X114.892 Y51.691 E22.03696
G1 X115.135 Y52.421 E22.07535
G1 X115.3 Y53.172 E22.11371
G1 X115.386 Y53.936 E22.15206
G1 X115.4 Y54.385 E22.17448
G1 X115.4 Y60.016 E22.45541
G1 X115.36 Y60.784 E22.49377
G1 X115.241 Y61.544 E22.53215
G1 X115.043 Y62.287 E22.57051
G1 X114.769 Y63.006 E22.6089
G1 X114.422 Y63.692 E22.64726
G1 X114.006 Y64.339 E22.68563
G1 X113.525 Y64.939 E22.724
G1 X112.984 Y65.486 E22.76238
G1 X112.389 Y65.974 E22.80077
G1 X112.205 Y66.095 E22.81176
G1 X113.732 Y67.966 E22.93225
G1 X114.187 Y68.587 E22.97065
G1 X114.575 Y69.251 E23.00902
G1 X114.892 Y69.952 E23.0474
G1 X115.135 Y70.682 E23.08579
G1 X115.3 Y71.433 E23.12415
G1 X115.386 Y72.197 E23.16251
G1 X115.4 Y72.646 E23.18492
G1 X115.4 Y78.277 E23.46585
G1 X115.36 Y79.045 E23.50422
G1 X115.241 Y79.805 E23.5426
G1 X115.043 Y80.548 E23.58096
G1 X114.769 Y81.267 E23.61935
G1 X114.422 Y81.953 E23.6577
G1 X114.006 Y82.6 E23.69607
G1 X113.525 Y83.2 E23.73444
G1 X112.984 Y83.747 E23.77282
G1 X112.389 Y84.235 E23.81122
G1 X112.204 Y84.357 E23.82227
G1 X113.732 Y86.228 E23.94279
G1 X114.187 Y86.849 E23.9812
G1 X114.575 Y87.513 E24.01956
G1 X114.892 Y88.214 E24.05795
G1 X115.135 Y88.944 E24.09633
G1 X115.3 Y89.695 E24.13469
G1 X115.386 Y90.459 E24.17305
G1 X115.4 Y90.908 E24.19546
G1 X115.4 Y96.538 E24.47634
G1 X115.36 Y97.306 E24.51471
G1 X115.241 Y98.066 E24.55309
G1 X115.043 Y98.809 E24.59145
G1 X114.769 Y99.528 E24.62984
G1 X114.422 Y100.214 E24.66819
G1 X114.006 Y100.861 E24.70657
G1 X113.525 Y101.461 E24.74493
G1 X112.984 Y102.008 E24.78332
G1 X112.389 Y102.496 E24.82171
G1 X112.205 Y102.617 E24.8327
G1 X113.732 Y104.488 E24.95318
G1 X114.187 Y105.109 E24.99159
G1 X114.575 Y105.773 E25.02996
G1 X114.892 Y106.474 E25.06834
G1 X115.135 Y107.204 E25.10673
G1 X115.3 Y107.955 E25.14509
G1 X115.386 Y108.719 E25.18344
G1 X115.4 Y109.168 E25.20585
G1 X115.4 Y114.799 E25.48679
G1 X115.36 Y115.567 E25.52515
G1 X115.241 Y116.327 E25.56353
G1 X115.043 Y117.07 E25.60189
G1 X114.769 Y117.789 E25.64028
G1 X114.422 Y118.475 E25.67864
G1 X114.006 Y119.122 E25.71701
G1 X113.525 Y119.722 E25.75538
G1 X112.984 Y120.269 E25.79376
G1 X112.389 Y120.757 E25.83215
G1 X112.205 Y120.878 E25.84314
G1 X113.732 Y122.749 E25.96363
G1 X114.187 Y123.369 E26.00199
G1 X114.575 Y124.033 E26.04036
G1 X114.892 Y124.734 E26.07874
G1 X115.134 Y125.464 E26.11711
G1 X115.3 Y126.215 E26.15548
G1 X115.386 Y126.98 E26.19389
G1 X115.4 Y127.429 E26.2163
G1 X115.4 Y133.06 E26.49723
G1 X115.36 Y133.828 E26.5356
G1 X115.241 Y134.588 E26.57398
G1 X115.043 Y135.331 E26.61234
G1 X114.769 Y136.05 E26.65073
G1 X114.422 Y136.736 E26.68908
G1 X114.006 Y137.383 E26.72746
G1 X113.525 Y137.983 E26.76582
G1 X112.984 Y138.53 E26.80421
G1 X112.389 Y139.018 E26.8426
G1 X112.205 Y139.139 E26.85359
G1 X113.732 Y141.01 E26.97407
G1 X114.187 Y141.631 E27.01248
G1 X114.575 Y142.295 E27.05085
G1 X114.892 Y142.996 E27.08923
G1 X115.135 Y143.726 E27.12762
G1 X115.3 Y144.477 E27.16598
G1 X115.386 Y145.241 E27.20433
G1 X115.4 Y145.69 E27.22675
G1 X115.4 Y151.322 E27.50773
G1 X115.36 Y152.09 E27.54609
G1 X115.241 Y152.85 E27.58447
G1 X115.043 Y153.593 E27.62284
G1 X114.769 Y154.312 E27.66122
G1 X114.422 Y154.998 E27.69958
G1 X114.006 Y155.645 E27.73795
G1 X113.525 Y156.245 E27.77632
G1 X112.984 Y156.792 E27.8147
G1 X112.389 Y157.28 E27.85309
G1 X112.205 Y157.401 E27.86408
G1 X113.732 Y159.271 E27.98453
G1 X114.187 Y159.891 E28.02289
G1 X114.575 Y160.555 E28.06126
G1 X114.892 Y161.256 E28.09965
G1 X115.134 Y161.986 E28.13801
G1 X115.3 Y162.737 E28.17639
G1 X115.386 Y163.502 E28.21479
G1 X115.4 Y163.951 E28.2372
G1 X115.4 Y169.582 E28.51814
G1 X115.36 Y170.35 E28.5565
G1 X115.241 Y171.11 E28.59488
G1 X115.043 Y171.853 E28.63324
G1 X114.769 Y172.572 E28.67163
G1 X114.422 Y173.258 E28.70999
G1 X114.006 Y173.905 E28.74836
G1 X113.525 Y174.505 E28.78673
G1 X112.984 Y175.052 E28.82511
G1 X112.389 Y175.54 E28.8635
G1 X111.747 Y175.963 E28.90186
G1 X111.064 Y176.318 E28.94026
G1 X110.489 Y176.551 E28.97121
G1 X110.223 Y176.646 E28.98531
G1 X109.486 Y176.867 E29.02369
G1 X108.73 Y177.01 E29.06208
G1 X107.964 Y177.073 E29.10042
